React/src/assets/images/otherSkills/mongodb-icon.svg

<svg width="130" height="130" viewBox="0 0 130 130" fill="none" xmlns="http://www.w3.org/2000/svg">
<g clip-path="url(#clip0)">
<path d="M64.5937 0.353516L68.0631 6.86977C68.8431 8.07227 69.6881 9.13664 70.6834 10.1279C73.5881 13.0326 76.3465 16.0754 78.8247 19.3335C84.7031 27.0523 88.6681 35.6241 91.4997 44.8948C93.1978 50.5579 94.12 56.3673 94.189 62.2416C94.4734 79.8038 88.4528 94.8838 76.314 107.417C74.3315 109.399 72.2109 111.235 69.9359 112.869C68.7334 112.869 68.1647 111.946 67.669 111.097C66.7468 109.541 66.1822 107.766 65.8978 105.999C65.4712 103.874 65.1909 101.749 65.329 99.5557V98.5645C65.2315 98.3532 64.1712 0.853203 64.5937 0.353516V0.353516Z" fill="#599636"/>
<path d="M64.5938 0.13903C64.4516 -0.145345 64.3094 0.0699673 64.1672 0.208092C64.2363 1.62997 63.7406 2.89747 62.9647 4.10809C62.1116 5.31059 60.9822 6.23278 59.8488 7.22403C53.5519 12.6759 48.5956 19.2612 44.6266 26.6265C39.3453 36.539 36.6234 47.1625 35.8516 58.3465C35.4981 62.3806 37.1272 76.6156 38.3988 80.7228C41.8681 91.6265 48.1 100.763 56.1722 108.693C58.1547 110.602 60.2753 112.374 62.4691 114.076C63.1069 114.076 63.1759 113.507 63.3222 113.085C63.6018 112.181 63.815 111.257 63.96 110.322L65.3819 99.7028L64.5938 0.13903Z" fill="#6CAC48"/>
<path d="M68.0632 117.183C68.2053 115.558 68.9853 114.209 69.8344 112.864C68.9813 112.511 68.3475 111.808 67.8519 111.024C67.4253 110.317 67.0719 109.468 66.7957 108.688C65.8044 105.714 65.5932 102.594 65.3088 99.5556V97.7153C64.9553 97.9997 64.8822 100.405 64.8822 100.762C64.6755 103.974 64.2493 107.168 63.6066 110.321C63.3953 111.597 63.2532 112.868 62.4691 114.002C62.4691 114.144 62.4691 114.286 62.5382 114.498C63.8138 118.251 64.1632 122.074 64.3785 125.97V127.392C64.3785 129.09 64.3094 128.733 65.7191 129.301C66.2878 129.513 66.9216 129.586 67.4903 130.008C67.9169 130.008 67.986 129.655 67.986 129.37L67.7747 127.034V120.518C67.7057 119.381 67.9169 118.251 68.0591 117.187L68.0632 117.183Z" fill="#C2BFBF"/>
</g>
<defs>
<clipPath id="clip0">
<rect width="130" height="130" fill="white"/>
</clipPath>
</defs>
</svg>

<svg width="130" height="130" fill="none" xmlns="http://www.w3.org/2000/svg"><g clip-path="url(#clip0)"><path d="M64.594.354l3.47 6.516a19.47 19.47 0 002.62 3.258c2.904 2.905 5.663 5.947 8.14 9.206 5.88 7.718 9.844 16.29 12.676 25.56 1.698 5.664 2.62 11.473 2.689 17.348.284 17.562-5.736 32.642-17.875 45.175-1.982 1.982-4.103 3.818-6.378 5.452-1.203 0-1.771-.923-2.267-1.772-.922-1.556-1.487-3.331-1.771-5.098-.427-2.125-.707-4.25-.569-6.443v-.992c-.097-.21-1.158-97.71-.735-98.21z" fill="#599636"/><path d="M64.594.139c-.142-.284-.285-.069-.427.07.07 1.421-.426 2.688-1.202 3.9-.853 1.202-1.983 2.124-3.116 3.115-6.297 5.452-11.253 12.037-15.222 19.402-5.282 9.913-8.004 20.537-8.775 31.72-.354 4.035 1.275 18.27 2.547 22.377 3.47 10.903 9.701 20.04 17.773 27.97 1.983 1.909 4.103 3.681 6.297 5.383.638 0 .707-.569.853-.991.28-.904.493-1.828.638-2.763l1.422-10.62L64.594.14z" fill="#6CAC48"/><path d="M68.063 117.183c.142-1.625.922-2.974 1.771-4.319-.853-.353-1.487-1.056-1.982-1.84-.427-.707-.78-1.556-1.056-2.336-.992-2.974-1.203-6.094-1.487-9.132v-1.84c-.354.284-.427 2.689-.427 3.046a70.543 70.543 0 01-1.275 9.559c-.212 1.276-.354 2.547-1.138 3.681 0 .142 0 .284.07.496 1.275 3.753 1.624 7.576 1.84 11.472v1.422c0 1.698-.07 1.341 1.34 1.909.569.212 1.203.285 1.771.707.427 0 .496-.353.496-.638l-.211-2.336v-6.516c-.07-1.137.142-2.267.284-3.331l.004-.004z" fill="#C2BFBF"/></g><defs><clipPath id="clip0"><path fill="#fff" d="M0 0h130v130H0z"/></clipPath></defs></svg>
